X:7234
T:The Puffin's Return
R:reel, (AEAE tuning)
C:Paul S. Cranford
D:The Lighthouse, Cranford Publications
B:The Lighthouse Collection, ISBN 0-9691181-5-5
N:Contacts ...
N:..... Cranford Publications <http://www.cranfordpub.com>
Q:300
O:England
L:1/8
M:C|
K:A
P:A
c|e2 cA BABc|e2 ce fbaf|e2 cA BABc|dBcA FEEc|
e2 cA BABc|e2 ce fbaf|e2 ae cABc|dBcA FE E2||
P:B
eaga faec|eaga bffa|eaga faec|dBcA FEE2|
eaga faec|eaga bffa|e2 ae cABc|dBcA FE E2||
P:C
ecBc Ac c/c/c|feae fbaf|ecBc AcBc|dBcA FEE2|
ecBc Ac c/c/c|feae fbaf|e2 ae cABc|dBcA FE E2||
P:D
ea a/a/a fa a/a/a|ea a/a/a bffa|ea a/a/a faec|dBcA FEE2|
ea a/a/a fa a/a/a|ea a/a/a bffa|e2 ae cABc|dBcA FE E2|]
% October 1998 Set of the Month
% http://www.interlog.com/~torocelt/tuneofthemonth.html
